icons/baby_male_0609m_fill.svg

<svg width="48" height="48" viewBox="0 0 48 48" fill="none" xmlns="http://www.w3.org/2000/svg">
<path d="M35.5 11.5C35.5 14.5376 33.0375 17 30 17C26.9624 17 24.5 14.5376 24.5 11.5C24.5 8.46243 26.9624 6 30 6C33.0375 6 35.5 8.46243 35.5 11.5Z" fill="black"/>
<path d="M40.4802 21.429C38.4955 21.92 36.7024 22.2895 34.9999 22.5357V25H24.9999V22.5095C23.302 22.2613 21.5157 21.8992 19.5415 21.4343C18.4663 21.1811 17.8 20.1042 18.0532 19.0291C18.3064 17.9539 19.3833 17.2876 20.4584 17.5408C24.2944 18.4442 27.1755 18.8912 30.0074 18.902C32.8335 18.9127 35.7071 18.4892 39.5197 17.5461C40.592 17.2808 41.6762 17.935 41.9414 19.0073C42.2067 20.0795 41.5525 21.1638 40.4802 21.429Z" fill="black"/>
<path d="M24.9999 28.9404V27H34.9999V28.9404C34.9999 29.5736 34.4295 31.2002 32.6793 31.9796C32.4791 32.0688 32.2539 32.1806 32.0516 32.2811L31.9325 32.3401C31.6839 32.463 31.4433 32.5792 31.1999 32.6823C30.6924 32.8973 30.2966 33 29.9999 33C29.7033 33 29.3074 32.8973 28.7999 32.6823C28.5566 32.5792 28.316 32.463 28.0673 32.3401L27.9483 32.2811C27.746 32.1806 27.5208 32.0688 27.3205 31.9796C25.5703 31.2002 24.9999 29.5736 24.9999 28.9404Z" fill="black"/>
<path d="M23.9809 31.6995C24.4585 32.507 25.2526 33.3191 26.4348 33.8564C26.2572 34.0242 26.0873 34.2188 25.9266 34.4579C25.4264 35.2027 24.9965 36.1227 24.9965 36.9895C24.9965 37.7819 25.3216 38.4636 25.5679 38.98L25.5859 39.0177C25.8577 39.5884 26.0295 39.9723 26.0295 40.3783C26.0295 41.2909 25.2452 42 24.3186 42C23.4551 42 22.7719 41.4249 22.263 40.3117C21.766 39.2247 21.5748 37.8834 21.5748 36.9895C21.5748 34.7484 22.4293 33.0501 23.9809 31.6995Z" fill="black"/>
<path d="M36.0191 31.6994C35.5414 32.5069 34.7473 33.319 33.5652 33.8562C33.7427 34.0241 33.9127 34.2187 34.0734 34.4579C34.5737 35.2027 35.0035 36.1227 35.0035 36.9895C35.0035 37.7819 34.6784 38.4636 34.4322 38.98L34.4142 39.0177C34.1423 39.5884 33.9705 39.9723 33.9705 40.3783C33.9705 41.2909 34.7548 42 35.6814 42C36.5449 42 37.2282 41.4249 37.7371 40.3117C38.234 39.2247 38.4253 37.8834 38.4253 36.9895C38.4253 34.7483 37.5707 33.0499 36.0191 31.6994Z" fill="black"/>
<path fill-rule="evenodd" clip-rule="evenodd" d="M16 15C16 17.7614 13.7614 20 11 20C8.23858 20 6 17.7614 6 15C6 12.2386 8.23858 10 11 10C12.1697 10 13.2456 10.4017 14.0973 11.0746L17.172 8H15C14.4477 8 14 7.55228 14 7C14 6.44772 14.4477 6 15 6H19.5C20.0523 6 20.5 6.44772 20.5 7V12C20.5 12.5523 20.0523 13 19.5 13C18.9477 13 18.5 12.5523 18.5 12V9.5004L15.392 12.6083C15.7797 13.3188 16 14.1337 16 15ZM14 15C14 16.6569 12.6569 18 11 18C9.34315 18 8 16.6569 8 15C8 13.3431 9.34315 12 11 12C12.6569 12 14 13.3431 14 15Z" fill="black"/>
</svg>

<svg
  xmlns="http://www.w3.org/2000/svg"
  width="24"
  height="24"
  viewBox="0 0 24 24"
  fill="none"
  stroke="currentColor"
  stroke-width="2"
  stroke-linecap="round"
  stroke-linejoin="round"
>
  <path d="M35.5 11.5a5.5 5.5 0 1 1-11 0 5.5 5.5 0 0 1 11 0" />
  <path d="M40.48 21.429c-1.984.491-3.778.86-5.48 1.107V25H25v-2.49c-1.698-.249-3.484-.61-5.459-1.076a2 2 0 1 1 .917-3.893c3.836.903 6.718 1.35 9.55 1.361 2.826.01 5.7-.413 9.512-1.356a2 2 0 1 1 .96 3.883" />
  <path d="M25 28.94V27h10v1.94c0 .634-.57 2.26-2.32 3.04-.2.089-.426.2-.628.301l-.12.06c-.248.122-.489.238-.732.341-.508.215-.903.318-1.2.318s-.693-.103-1.2-.318c-.243-.103-.484-.219-.733-.342l-.119-.059c-.202-.1-.427-.212-.628-.301-1.75-.78-2.32-2.406-2.32-3.04" />
  <path d="M23.98 31.7c.479.807 1.273 1.62 2.455 2.156a3.5 3.5 0 0 0-.508.602c-.5.745-.93 1.665-.93 2.532 0 .792.325 1.474.57 1.99l.019.038c.272.57.444.954.444 1.36 0 .913-.785 1.622-1.711 1.622-.864 0-1.547-.575-2.056-1.688-.497-1.087-.688-2.429-.688-3.322 0-2.242.854-3.94 2.406-5.29" />
  <path d="M36.02 31.7c-.479.807-1.273 1.619-2.455 2.156.178.168.348.363.508.602.5.745.93 1.665.93 2.532 0 .792-.325 1.474-.57 1.99l-.019.038c-.272.57-.444.954-.444 1.36 0 .913.785 1.622 1.711 1.622.864 0 1.547-.575 2.056-1.688.497-1.087.688-2.429.688-3.322 0-2.242-.854-3.94-2.406-5.29" />
  <path
    fill-rule="evenodd"
    d="M16 15a5 5 0 1 1-1.903-3.925L17.172 8H15a1 1 0 1 1 0-2h4.5a1 1 0 0 1 1 1v5a1 1 0 1 1-2 0V9.5l-3.108 3.108c.388.71.608 1.526.608 2.392m-2 0a3 3 0 1 1-6 0 3 3 0 0 1 6 0"
    clip-rule="evenodd"
  />
</svg>
